!!!!SEGMENT: pl-sa--138-a-iii-38--002_luna-georgius--beatus-vir-dispersit.krn
!!!cenid: 17xx:480
!!!COM: Luna, Georgius
!!!COM-rismid: pe41010079
!!!CDT:
!!!CNT:
!!!OPR: Beatus vir
!!!OTL: Dispersit
!!!OMV: 002
!!!PDT: 1760
!!!AGN: Sacred
!!!SMS-siglum: PL-SA
!!!SMS-shelfmark: 138/A III 38
!!!SMS-shelfwork: 001-002 M
!!!SMS-variant:
!!!SMS-altvar:
!!!NIFC-rismid: 1001030074
!!!URL-scan: http://bc.bdsandomierz.pl/dlibra/publication/1495/edition/1463/content
!!!ONB-nifc: UWAGA: części: Beatus vir, Dispersit, Gloria Patri. UWAGA: brak partii violino primo
**kern	**dynam	**kern	**dynam	**kern	**text	**kern	**kern	**kern	**kern	**kern
*part8	*part8	*part7	*part7	*part6	*part6	*part5	*part4	*part3	*part2	*part1
*staff8	*	*staff7	*	*staff6	*staff6	*staff5	*staff4	*staff3	*staff2	*staff1
*group5	*	*group4	*	*group3	*	*group3	*group2	*group2	*group1	*group1
*Iempty	*	*Ivioln	*	*Itenor	*	*Ivox	*Iempty	*Iempty	*Ioboe	*Ioboe
*I"Fondamento.	*	*I"Violino Secundo	*	*I"Tenore	*	*I"Canto.	*I"Clarino Secundo.	*I"Clarino Primo.	*I"Oböa Secunda.	*I"Oböa Prima.
*I'org	*	*I'vl 2	*	*I'T	*	*I'C	*I'clno 2	*I'clno 1	*I'ob 2	*I'ob 1
*clefF4	*	*clefG2	*	*clefC4	*	*clefC1	*clefG2	*clefG2	*clefG2	*clefG2
*k[b-]	*	*k[b-]	*	*k[b-]	*	*k[b-]	*k[b-]	*k[b-]	*k[b-]	*k[b-]
*F:	*	*F:	*	*F:	*	*F:	*F:	*F:	*F:	*F:
*M3/4	*	*M3/4	*	*M3/4	*	*M3/4	*M3/4	*M3/4	*M3/4	*M3/4
=1	=1	=1	=1	=1	=1	=1	=1	=1	=1	=1
*	*	*2\right	*	*	*	*	*	*	*	*
!LO:TX:b:t=Dyſpersit	!	!LO:TX:b:t=Dyſpersit	!	!LO:N:vis=00	!	!	!	!	!	!LO:TX:a:t=Tacet
!LO:TX:a:B:t=Andante	!	!LO:TX:a:B:t=Andante	!	!LO:TX:a:B:t=a(n)da:(nte)	!	!LO:TX:a:t=Tacet	!LO:TX:a:t=Tacet	!LO:TX:a:t=Tacet	!LO:TX:a:t=Tacet	!LO:TX:a:B:t=Andante
8r	.	2.ff\	.	0.r	.	2.ryy	2.ryy	2.ryy	2.ryy	2.ryy
8F\L	.	.	.	.	.	.	.	.	.	.
8G\	.	.	.	.	.	.	.	.	.	.
8A\	.	.	.	.	.	.	.	.	.	.
8B-\	.	.	.	.	.	.	.	.	.	.
8c\J	.	.	.	.	.	.	.	.	.	.
=2	=2	=2	=2	=2	=2	=2	=2	=2	=2	=2
8d\L	.	4ff\	.	.	.	2.ryy	2.ryy	2.ryy	2.ryy	2.ryy
8B-\J	.	.	.	.	.	.	.	.	.	.
4c\	.	8ee\L	.	.	.	.	.	.	.	.
.	.	8dd\	.	.	.	.	.	.	.	.
4C/	.	8cc\	.	.	.	.	.	.	.	.
.	.	8b-\J	.	.	.	.	.	.	.	.
=3	=3	=3	=3	=3	=3	=3	=3	=3	=3	=3
8F\L	.	8a/L	.	.	.	2.ryy	2.ryy	2.ryy	2.ryy	2.ryy
8F\	.	8g/J	.	.	.	.	.	.	.	.
8C\	.	4f/	.	.	.	.	.	.	.	.
8F\	.	.	.	.	.	.	.	.	.	.
8AA\	.	4r	.	.	.	.	.	.	.	.
8C\J	.	.	.	.	.	.	.	.	.	.
=4	=4	=4	=4	=4	=4	=4	=4	=4	=4	=4
!LO:TX:a:t=problem: mixed beam	!	!LO:TX:a:t=problem: mixed beam	!	!	!	!	!	!	!	!
8FF/L	.	8f/L	.	.	.	2.ryy	2.ryy	2.ryy	2.ryy	2.ryy
8F\	.	8aa\J	.	.	.	.	.	.	.	.
8E\	.	4.aat\	.	.	.	.	.	.	.	.
8F\	.	.	.	.	.	.	.	.	.	.
8D\	.	.	.	.	.	.	.	.	.	.
8BBn\J	.	16gg\LL	.	.	.	.	.	.	.	.
.	.	16ff\JJ	.	.	.	.	.	.	.	.
=5	=5	=5	=5	=5	=5	=5	=5	=5	=5	=5
!	!	!LO:TX:a:t=problem: mixed beam	!	!LO:N:vis=00	!	!	!	!	!	!
8r	.	8e/L	.	0.r	.	2.ryy	2.ryy	2.ryy	2.ryy	2.ryy
8E\L	.	8gg\J	.	.	.	.	.	.	.	.
8D\	.	4.ggT\	.	.	.	.	.	.	.	.
8E\	.	.	.	.	.	.	.	.	.	.
8C\	.	.	.	.	.	.	.	.	.	.
8AA\J	.	16ff\LL	.	.	.	.	.	.	.	.
.	.	16ee\JJ	.	.	.	.	.	.	.	.
=6	=6	=6	=6	=6	=6	=6	=6	=6	=6	=6
!	!	!LO:TX:a:t=problem: mixed beam	!	!	!	!	!	!	!	!
8r	.	8d/L	.	.	.	2.ryy	2.ryy	2.ryy	2.ryy	2.ryy
8D\L	.	8ff\J	.	.	.	.	.	.	.	.
8C\	.	4.ffT\	.	.	.	.	.	.	.	.
8D\	.	.	.	.	.	.	.	.	.	.
8BBn\	.	.	.	.	.	.	.	.	.	.
8GG\J	.	16ee\LL	.	.	.	.	.	.	.	.
.	.	16dd\JJ	.	.	.	.	.	.	.	.
=7	=7	=7	=7	=7	=7	=7	=7	=7	=7	=7
4C\	.	4ee\	.	.	.	2.ryy	2.ryy	2.ryy	2.ryy	2.ryy
4C\	.	4g/	.	.	.	.	.	.	.	.
4C\	.	4g/	.	.	.	.	.	.	.	.
=8	=8	=8	=8	=8	=8	=8	=8	=8	=8	=8
4C\	.	4a/	.	.	.	2.ryy	2.ryy	2.ryy	2.ryy	2.ryy
4C\	.	4a/	.	.	.	.	.	.	.	.
4C\	.	4a/	.	.	.	.	.	.	.	.
=9	=9	=9	=9	=9	=9	=9	=9	=9	=9	=9
!	!	!	!	!LO:N:vis=00	!	!	!	!	!	!
4C\	.	4ee\	.	0.r	.	2.ryy	2.ryy	2.ryy	2.ryy	2.ryy
4C\	.	4ee\	.	.	.	.	.	.	.	.
4C\	.	4ee\	.	.	.	.	.	.	.	.
=10	=10	=10	=10	=10	=10	=10	=10	=10	=10	=10
8r	.	2.gg\	.	.	.	2.ryy	2.ryy	2.ryy	2.ryy	2.ryy
!LO:TX:a:t=problem: mixed beam	!	!	!	!	!	!	!	!	!	!
8C\L	.	.	.	.	.	.	.	.	.	.
8E\	.	.	.	.	.	.	.	.	.	.
8G\	.	.	.	.	.	.	.	.	.	.
8c\	.	.	.	.	.	.	.	.	.	.
8C/J	.	.	.	.	.	.	.	.	.	.
=11	=11	=11	=11	=11	=11	=11	=11	=11	=11	=11
*	*	*Xtuplet	*	*	*	*	*	*	*	*
!	!	!LO:TX:a:t=problem:brak oznaczenia triol	!	!	!	!	!	!	!	!
8F\L	.	12aa\L	.	.	.	2.ryy	2.ryy	2.ryy	2.ryy	2.ryy
.	.	12ff\	.	.	.	.	.	.	.	.
8B-\J	.	.	.	.	.	.	.	.	.	.
.	.	12dd\J	.	.	.	.	.	.	.	.
.	.	8qqff/	.	.	.	.	.	.	.	.
4c\	.	2ee\	.	.	.	.	.	.	.	.
4C/	.	.	.	.	.	.	.	.	.	.
!LO:LB:g=original	!	!	!	!	!	!	!	!	!	!
=12	=12	=12	=12	=12	=12	=12	=12	=12	=12	=12
!	!LO:DY:t=piano.	!	!	!	!	!	!	!	!	!
!	!LO:DY:a	!	!LO:DY:a	!	!	!	!	!	!	!
4C/	p	4g/	p	.	.	2.ryy	2.ryy	2.ryy	2.ryy	2.ryy
4C/	.	4g/	.	.	.	.	.	.	.	.
4C/	.	4g/	.	.	.	.	.	.	.	.
=13	=13	=13	=13	=13	=13	=13	=13	=13	=13	=13
!	!	!	!	!LO:N:vis=00	!	!	!	!	!	!
4C/	.	4a/	.	0.r	.	2.ryy	2.ryy	2.ryy	2.ryy	2.ryy
4C/	.	4a/	.	.	.	.	.	.	.	.
4C/	.	4a/	.	.	.	.	.	.	.	.
=14	=14	=14	=14	=14	=14	=14	=14	=14	=14	=14
4C/	.	4gg\	.	.	.	2.ryy	2.ryy	2.ryy	2.ryy	2.ryy
4C/	.	4gg\	.	.	.	.	.	.	.	.
4C/	.	4gg\	.	.	.	.	.	.	.	.
=15	=15	=15	=15	=15	=15	=15	=15	=15	=15	=15
8r	.	2.gg\	.	.	.	2.ryy	2.ryy	2.ryy	2.ryy	2.ryy
!LO:TX:a:t=problem: mixed beam	!	!	!	!	!	!	!	!	!	!
8C\L	.	.	.	.	.	.	.	.	.	.
8E\	.	.	.	.	.	.	.	.	.	.
8G\	.	.	.	.	.	.	.	.	.	.
8c\	.	.	.	.	.	.	.	.	.	.
8C/J	.	.	.	.	.	.	.	.	.	.
=16	=16	=16	=16	=16	=16	=16	=16	=16	=16	=16
8F\L	.	12aa\L	.	.	.	2.ryy	2.ryy	2.ryy	2.ryy	2.ryy
.	.	12ff\	.	.	.	.	.	.	.	.
8B-\J	.	.	.	.	.	.	.	.	.	.
.	.	12dd\J	.	.	.	.	.	.	.	.
.	.	8qqff/	.	.	.	.	.	.	.	.
4c\	.	2ee\	.	.	.	.	.	.	.	.
4C/	.	.	.	.	.	.	.	.	.	.
!	!	!LO:LB:g=original	!	!	!	!	!	!	!	!
=17	=17	=17	=17	=17	=17	=17	=17	=17	=17	=17
!	!LO:DY:a	!	!LO:DY:a	!LO:N:vis=0	!	!	!	!	!	!
8F\L	f	8ff\L	f	1.r	.	2.ryy	2.ryy	2.ryy	2.ryy	2.ryy
8f\	.	8ff`\	.	.	.	.	.	.	.	.
8c\	.	8cc`\	.	.	.	.	.	.	.	.
8f\	.	8ff`\	.	.	.	.	.	.	.	.
8c\	.	8cc`\	.	.	.	.	.	.	.	.
8A\J	.	8a`\J	.	.	.	.	.	.	.	.
=18	=18	=18	=18	=18	=18	=18	=18	=18	=18	=18
2F;;\	.	2f;;/	.	.	.	2.ryy	2.ryy	2.ryy	2.ryy	2.ryy
4r	.	4r	.	.	.	.	.	.	.	.
=19	=19	=19	=19	=19	=19	=19	=19	=19	=19	=19
!	!LO:DY:a	!	!LO:DY:a	!	!	!	!	!	!	!
8r	p	8r	p	4f\	Dis-	2.ryy	2.ryy	2.ryy	2.ryy	2.ryy
8F\L	.	8a\L	.	.	.	.	.	.	.	.
8G\	.	8b-\	.	4f\	-per-	.	.	.	.	.
8A\	.	8cc\	.	.	.	.	.	.	.	.
8B-\	.	8dd\	.	4f\	-sit	.	.	.	.	.
8c\J	.	8ee\J	.	.	.	.	.	.	.	.
=20	=20	=20	=20	=20	=20	=20	=20	=20	=20	=20
8d\L	.	4ff\	.	4f\	de-	2.ryy	2.ryy	2.ryy	2.ryy	2.ryy
8B-\J	.	.	.	.	.	.	.	.	.	.
4c\	.	4g/	.	8e\L	-dit	.	.	.	.	.
.	.	.	.	8d\J	.	.	.	.	.	.
4C/	.	4g/	.	8c\L	pau-	.	.	.	.	.
.	.	.	.	8B-\J	.	.	.	.	.	.
=21	=21	=21	=21	=21	=21	=21	=21	=21	=21	=21
8F\L	.	8a/L	.	8A\	-pe-	2.ryy	2.ryy	2.ryy	2.ryy	2.ryy
8F\	.	8g/J	.	8G\	-ri-	.	.	.	.	.
8C\	.	4f/	.	4F\	-bus	.	.	.	.	.
8F\	.	.	.	.	.	.	.	.	.	.
8GG\	.	4r	.	4r	.	.	.	.	.	.
8C\J	.	.	.	.	.	.	.	.	.	.
=22	=22	=22	=22	=22	=22	=22	=22	=22	=22	=22
!LO:TX:a:t=problem: mixed beam	!	!	!	!	!	!	!	!	!	!
8FF/L	.	8b-\L	.	4d\	jus-	2.ryy	2.ryy	2.ryy	2.ryy	2.ryy
8F\	.	8b-\	.	.	.	.	.	.	.	.
8F\	.	8b-\	.	4d\	-ti-	.	.	.	.	.
8F\	.	8b-\	.	.	.	.	.	.	.	.
8F\	.	8b-\	.	8d\	-ti-	.	.	.	.	.
8F\J	.	8b-\J	.	8d\	-a	.	.	.	.	.
=23	=23	=23	=23	=23	=23	=23	=23	=23	=23	=23
8F\L	.	8b-\L	.	8d\	e-	2.ryy	2.ryy	2.ryy	2.ryy	2.ryy
8F\	.	8b-\	.	8c\	-jus	.	.	.	.	.
!	!	!	!	!LO:LB:g=original	!	!	!	!	!	!
8F\	.	8a\	.	4f\	ma-	.	.	.	.	.
8F\	.	8a\	.	.	.	.	.	.	.	.
8A\	.	8ff\	.	8f\	-net	.	.	.	.	.
8A\J	.	8ff\J	.	8f\	in	.	.	.	.	.
!LO:TX:a:t=problem: mixed beam	!	!	!	!	!	!	!	!	!	!
=24	=24	=24	=24	=24	=24	=24	=24	=24	=24	=24
8B-\L	.	8ff\L	.	8g\L	se-	2.ryy	2.ryy	2.ryy	2.ryy	2.ryy
8B-\	.	8ff\	.	8f\J	.	.	.	.	.	.
8c\	.	8ee\	.	8e\	-cu-	.	.	.	.	.
!LO:TX:a:t=problem: mixed beam	!	!	!	!	!	!	!	!	!	!
8c\	.	8ee\	.	8d\	-lum	.	.	.	.	.
8C/	.	8ee\	.	8c\	se-	.	.	.	.	.
8C/J	.	8ee\J	.	8B-\	-cu-	.	.	.	.	.
=25	=25	=25	=25	=25	=25	=25	=25	=25	=25	=25
8F\L	.	8ff\L	.	4A\	-li	2.ryy	2.ryy	2.ryy	2.ryy	2.ryy
8F\	.	8ff\	.	.	.	.	.	.	.	.
8F\	.	8ff\	.	4r	.	.	.	.	.	.
8F\	.	8ff\	.	.	.	.	.	.	.	.
8G\	.	8dd\	.	8d\	cor-	.	.	.	.	.
8G\J	.	8dd\J	.	8Bn\	-nu	.	.	.	.	.
=26	=26	=26	=26	=26	=26	=26	=26	=26	=26	=26
8G\L	.	8cc\L	.	8c\L	e-	2.ryy	2.ryy	2.ryy	2.ryy	2.ryy
8G\	.	8cc\	.	8e\J	.	.	.	.	.	.
8G\	.	8ee\	.	4g\	-jus	.	.	.	.	.
8G\	.	8ee\	.	.	.	.	.	.	.	.
8G\	.	8dd\	.	8f\	e-	.	.	.	.	.
8G\J	.	8dd\J	.	8d\	-xal-	.	.	.	.	.
=27	=27	=27	=27	=27	=27	=27	=27	=27	=27	=27
8G\L	.	8cc\L	.	8c\	-ta-	2.ryy	2.ryy	2.ryy	2.ryy	2.ryy
8G\	.	8bn\	.	8Bn\	-bi-	.	.	.	.	.
8G\	.	8cc\	.	4c\	-tur	.	.	.	.	.
8G\	.	8cc\	.	.	.	.	.	.	.	.
8G\	.	8dd\	.	8d\	e-	.	.	.	.	.
8G\J	.	8dd\J	.	8Bn\	-xal	.	.	.	.	.
!	!	!	!	!LO:LB:g=original	!	!	!	!	!	!
=28	=28	=28	=28	=28	=28	=28	=28	=28	=28	=28
8G\L	.	8cc\L	.	8c\	-ta-	2.ryy	2.ryy	2.ryy	2.ryy	2.ryy
8G\	.	8cc\	.	8e\	-bi-	.	.	.	.	.
8G\	.	8ee\	.	4g\	-tur	.	.	.	.	.
8G\	.	8ee\	.	.	.	.	.	.	.	.
8G\	.	8dd\	.	8f\L	in	.	.	.	.	.
8G\J	.	8dd\J	.	8d\J	.	.	.	.	.	.
!	!	!LO:LB:g=original	!	!	!	!	!	!	!	!
=29	=29	=29	=29	=29	=29	=29	=29	=29	=29	=29
8G\L	.	8cc\L	.	8c\	glo-	2.ryy	2.ryy	2.ryy	2.ryy	2.ryy
8G\	.	8bn\	.	8Bn\	-ri-	.	.	.	.	.
8G\	.	8cc\	.	4c\	-a	.	.	.	.	.
8G\	.	8cc\	.	.	.	.	.	.	.	.
8F\	.	8a\	.	4A\	in	.	.	.	.	.
8F\J	.	8a\J	.	.	.	.	.	.	.	.
=30	=30	=30	=30	=30	=30	=30	=30	=30	=30	=30
4E\	.	4g/	.	8G\L	glo-	2.ryy	2.ryy	2.ryy	2.ryy	2.ryy
.	.	.	.	8c\J	.	.	.	.	.	.
4G\	.	4.b-\	.	4.d\	.	.	.	.	.	.
4GG/	.	.	.	.	.	.	.	.	.	.
.	.	8b-\	.	8d\	-ri-	.	.	.	.	.
=31	=31	=31	=31	=31	=31	=31	=31	=31	=31	=31
!	!LO:DY:t=for:	!	!	!	!	!	!	!	!	!
!	!LO:DY:a	!	!	!	!	!	!	!	!	!
4C\	f	4cc\	.	4c\	-a	2.ryy	2.ryy	2.ryy	2.ryy	2.ryy
4E\	.	4r	.	4r	.	.	.	.	.	.
!	!	!	!LO:DY:a	!	!	!	!	!	!	!
4C\	.	4e/	f	4r	.	.	.	.	.	.
=32	=32	=32	=32	=32	=32	=32	=32	=32	=32	=32
!	!	!	!	!LO:N:vis=00	!	!	!	!	!	!
4G\	.	4d/	.	0.r	.	2.ryy	2.ryy	2.ryy	2.ryy	2.ryy
4G\	.	4d/	.	.	.	.	.	.	.	.
4G\	.	4d/	.	.	.	.	.	.	.	.
=33	=33	=33	=33	=33	=33	=33	=33	=33	=33	=33
4G\	.	4e/	.	.	.	2.ryy	2.ryy	2.ryy	2.ryy	2.ryy
4G\	.	4e/	.	.	.	.	.	.	.	.
4G\	.	4e/	.	.	.	.	.	.	.	.
=34	=34	=34	=34	=34	=34	=34	=34	=34	=34	=34
4G\	.	4bn\	.	.	.	2.ryy	2.ryy	2.ryy	2.ryy	2.ryy
4G\	.	4b\	.	.	.	.	.	.	.	.
4G\	.	4b\	.	.	.	.	.	.	.	.
=35	=35	=35	=35	=35	=35	=35	=35	=35	=35	=35
8r	.	2.dd\	.	.	.	2.ryy	2.ryy	2.ryy	2.ryy	2.ryy
8GG/L	.	.	.	.	.	.	.	.	.	.
8BBn/	.	.	.	.	.	.	.	.	.	.
8D/	.	.	.	.	.	.	.	.	.	.
8G/	.	.	.	.	.	.	.	.	.	.
8GG/J	.	.	.	.	.	.	.	.	.	.
!LO:LB:g=original	!	!	!	!	!	!	!	!	!	!
=36	=36	=36	=36	=36	=36	=36	=36	=36	=36	=36
!	!	!	!	!LO:N:vis=00	!	!	!	!	!	!
8C\L	.	12ee\L	.	0.r	.	2.ryy	2.ryy	2.ryy	2.ryy	2.ryy
.	.	12cc\	.	.	.	.	.	.	.	.
8F\J	.	.	.	.	.	.	.	.	.	.
.	.	12a\J	.	.	.	.	.	.	.	.
.	.	8qqcc/	.	.	.	.	.	.	.	.
4G\	.	2bn\	.	.	.	.	.	.	.	.
4GG/	.	.	.	.	.	.	.	.	.	.
=37	=37	=37	=37	=37	=37	=37	=37	=37	=37	=37
!	!LO:DY:t=pia:	!	!	!	!	!	!	!	!	!
!	!LO:DY:a	!	!	!	!	!	!	!	!	!
4G\	p	4d/	p	.	.	2.ryy	2.ryy	2.ryy	2.ryy	2.ryy
4G\	.	4d/	.	.	.	.	.	.	.	.
4G\	.	4d/	.	.	.	.	.	.	.	.
=38	=38	=38	=38	=38	=38	=38	=38	=38	=38	=38
4G\	.	4e/	.	.	.	2.ryy	2.ryy	2.ryy	2.ryy	2.ryy
4G\	.	4e/	.	.	.	.	.	.	.	.
4G\	.	4e/	.	.	.	.	.	.	.	.
=39	=39	=39	=39	=39	=39	=39	=39	=39	=39	=39
4G\	.	4bn\	.	.	.	2.ryy	2.ryy	2.ryy	2.ryy	2.ryy
4G\	.	4b\	.	.	.	.	.	.	.	.
4G\	.	4b\	.	.	.	.	.	.	.	.
=40	=40	=40	=40	=40	=40	=40	=40	=40	=40	=40
!	!	!	!	!LO:N:vis=00	!	!	!	!	!	!
8r	.	2.dd\	.	0.r	.	2.ryy	2.ryy	2.ryy	2.ryy	2.ryy
8GG/L	.	.	.	.	.	.	.	.	.	.
8BBn/	.	.	.	.	.	.	.	.	.	.
8D/	.	.	.	.	.	.	.	.	.	.
8G/	.	.	.	.	.	.	.	.	.	.
8GG/J	.	.	.	.	.	.	.	.	.	.
=41	=41	=41	=41	=41	=41	=41	=41	=41	=41	=41
8C\L	.	12ee\L	.	.	.	2.ryy	2.ryy	2.ryy	2.ryy	2.ryy
.	.	12cc\	.	.	.	.	.	.	.	.
8F\J	.	.	.	.	.	.	.	.	.	.
.	.	12a\J	.	.	.	.	.	.	.	.
.	.	8qqcc/	.	.	.	.	.	.	.	.
4G\	.	2bn\	.	.	.	.	.	.	.	.
!	!LO:DY:t-for:	!	!	!	!	!	!	!	!	!
!	!LO:DY:a	!	!	!	!	!	!	!	!	!
4GG/	f	.	.	.	.	.	.	.	.	.
=42	=42	=42	=42	=42	=42	=42	=42	=42	=42	=42
!LO:TX:a:t=problem: mixed beam	!	!	!LO:DY:a	!	!	!	!	!	!	!
8C/L	.	8cc\L	f	.	.	2.ryy	2.ryy	2.ryy	2.ryy	2.ryy
8c\	.	8cc\	.	.	.	.	.	.	.	.
8G\	.	8g\	.	.	.	.	.	.	.	.
8c\	.	8cc\	.	.	.	.	.	.	.	.
8G\	.	8g\	.	.	.	.	.	.	.	.
8E\J	.	8e\J	.	.	.	.	.	.	.	.
=43	=43	=43	=43	=43	=43	=43	=43	=43	=43	=43
2C/	.	2c/	.	.	.	2.ryy	2.ryy	2.ryy	2.ryy	2.ryy
4r	.	4r	.	.	.	.	.	.	.	.
!	!	!LO:LB:g=original	!	!	!	!	!	!	!	!
=44	=44	=44	=44	=44	=44	=44	=44	=44	=44	=44
!	!LO:DY:a	!	!LO:DY:a	!	!	!	!	!	!	!
*	*	*	*	*2\right	*	*	*	*	*	*
!	!LO:DY:t=pia:	!	!	!	!	!	!	!	!	!
8r	p	8r	p	2.c\	Pec-	2.ryy	2.ryy	2.ryy	2.ryy	2.ryy
8C\L	.	8e/L	.	.	.	.	.	.	.	.
8D\	.	8f/	.	.	.	.	.	.	.	.
8E\	.	8g/	.	.	.	.	.	.	.	.
8F\	.	8a/	.	.	.	.	.	.	.	.
8G\J	.	8bn/J	.	.	.	.	.	.	.	.
=45	=45	=45	=45	=45	=45	=45	=45	=45	=45	=45
8A\L	.	4cc\	.	4c\	-ca-	2.ryy	2.ryy	2.ryy	2.ryy	2.ryy
8F\J	.	.	.	.	.	.	.	.	.	.
4G\	.	4d/	.	8Bn\L	-tor-	.	.	.	.	.
.	.	.	.	8A\J	.	.	.	.	.	.
4GG/	.	4d/	.	8G\L	-ri	.	.	.	.	.
.	.	.	.	8f\J	.	.	.	.	.	.
!	!	!	!	!LO:LB:g=original	!	!	!	!	!	!
=46	=46	=46	=46	=46	=46	=46	=46	=46	=46	=46
8C\L	.	8e/L	.	8e\L	de-	2.ryy	2.ryy	2.ryy	2.ryy	2.ryy
8c\	.	8d/J	.	8d\J	.	.	.	.	.	.
8G\	.	4c/	.	4c\	-bit	.	.	.	.	.
8E\J	.	.	.	.	.	.	.	.	.	.
4C/	.	4r	.	4r	.	.	.	.	.	.
=47	=47	=47	=47	=47	=47	=47	=47	=47	=47	=47
8r	.	8r	.	2.f\	et	2.ryy	2.ryy	2.ryy	2.ryy	2.ryy
8F\L	.	8a\L	.	.	.	.	.	.	.	.
8G\	.	8b-X\	.	.	.	.	.	.	.	.
8A\	.	8cc\	.	.	.	.	.	.	.	.
8B-\	.	8dd\	.	.	.	.	.	.	.	.
8c\J	.	8ee\J	.	.	.	.	.	.	.	.
=48	=48	=48	=48	=48	=48	=48	=48	=48	=48	=48
8d\L	.	4ff\	.	4f\	i-	2.ryy	2.ryy	2.ryy	2.ryy	2.ryy
8B-\J	.	.	.	.	.	.	.	.	.	.
4c\	.	4g/	.	8e\L	-ras-	.	.	.	.	.
.	.	.	.	8d\	.	.	.	.	.	.
4C/	.	4g/	.	8c\	.	.	.	.	.	.
.	.	.	.	8B-\J	.	.	.	.	.	.
=49	=49	=49	=49	=49	=49	=49	=49	=49	=49	=49
8F\L	.	8a/L	.	8A/L	-ce-	2.ryy	2.ryy	2.ryy	2.ryy	2.ryy
8F\	.	8g/J	.	8G/J	.	.	.	.	.	.
8C\	.	4f/	.	4F/	-tur	.	.	.	.	.
8F\	.	.	.	.	.	.	.	.	.	.
8C\	.	4r	.	4r	.	.	.	.	.	.
8AA\J	.	.	.	.	.	.	.	.	.	.
!LO:LB:g=original	!	!	!	!	!	!	!	!	!	!
=50	=50	=50	=50	=50	=50	=50	=50	=50	=50	=50
!LO:TX:a:t=problem: mixed beam	!	!	!	!	!	!	!	!	!	!
8FF/L	.	8cc\L	.	4e-X\	Den-	2.ryy	2.ryy	2.ryy	2.ryy	2.ryy
8F\	.	8cc\	.	.	.	.	.	.	.	.
8F\	.	8cc\	.	8e-\	-ti-	.	.	.	.	.
8F\	.	8cc\	.	8e-\	-bus	.	.	.	.	.
8F\	.	8cc\	.	8e-\	su-	.	.	.	.	.
8F\J	.	8cc\J	.	8e-\	-is	.	.	.	.	.
=51	=51	=51	=51	=51	=51	=51	=51	=51	=51	=51
4BB-/	.	4cc\	.	(4e\	fre-	2.ryy	2.ryy	2.ryy	2.ryy	2.ryy
4BB-/	.	4b-\	.	4d\)	.	.	.	.	.	.
4A\	.	[4f/	.	4c\	-met	.	.	.	.	.
!	!	!	!	!LO:LB:g=original	!	!	!	!	!	!
=52	=52	=52	=52	=52	=52	=52	=52	=52	=52	=52
4A\	.	4f/]	.	4c\	e-	2.ryy	2.ryy	2.ryy	2.ryy	2.ryy
4G\	.	4en/	.	4B-\	.	.	.	.	.	.
4F\	.	4f/	.	4A\	-ta-	.	.	.	.	.
=53	=53	=53	=53	=53	=53	=53	=53	=53	=53	=53
!LO:TX:a:t=problem: mixed beam	!	!	!	!	!	!	!	!	!	!
8c\L	.	4f/	.	4A\	-bes-	2.ryy	2.ryy	2.ryy	2.ryy	2.ryy
8C/	.	.	.	.	.	.	.	.	.	.
8E/	.	4e/	.	4G\	-cet	.	.	.	.	.
8G/	.	.	.	.	.	.	.	.	.	.
8c/	.	4ee\	.	4r	.	.	.	.	.	.
8C/J	.	.	.	.	.	.	.	.	.	.
=54	=54	=54	=54	=54	=54	=54	=54	=54	=54	=54
4C/	.	4g/	.	2c\	De-	2.ryy	2.ryy	2.ryy	2.ryy	2.ryy
4C/	.	4g/	.	.	.	.	.	.	.	.
4C/	.	4g/	.	4c\	-si	.	.	.	.	.
=55	=55	=55	=55	=55	=55	=55	=55	=55	=55	=55
4C/	.	4a/	.	4.c\	de-	2.ryy	2.ryy	2.ryy	2.ryy	2.ryy
4C/	.	4a/	.	.	.	.	.	.	.	.
.	.	.	.	8c\	-ri-	.	.	.	.	.
4C/	.	4a/	.	4c\	-um	.	.	.	.	.
=56	=56	=56	=56	=56	=56	=56	=56	=56	=56	=56
4C/	.	4ee\	.	2c\	pec-	2.ryy	2.ryy	2.ryy	2.ryy	2.ryy
4C/	.	4ee\	.	.	.	.	.	.	.	.
4C/	.	4ee\	.	12c\L	-ca-	.	.	.	.	.
.	.	.	.	12e\	.	.	.	.	.	.
.	.	.	.	12g\J	.	.	.	.	.	.
!	!	!LO:LB:g=original	!	!	!	!	!	!	!	!
=57	=57	=57	=57	=57	=57	=57	=57	=57	=57	=57
.	.	.	.	8qqc/	.	.	.	.	.	.
8r	.	2.gg\	.	2B-\	-to-	2.ryy	2.ryy	2.ryy	2.ryy	2.ryy
8C\L	.	.	.	.	.	.	.	.	.	.
8E\	.	.	.	.	.	.	.	.	.	.
!LO:TX:a:t=problem: mixed beam	!	!	!	!	!	!	!	!	!	!
8G\	.	.	.	.	.	.	.	.	.	.
8c\	.	.	.	4B-\	-rum	.	.	.	.	.
8C/J	.	.	.	.	.	.	.	.	.	.
=58	=58	=58	=58	=58	=58	=58	=58	=58	=58	=58
*	*	*	*	*Xtuplet	*	*	*	*	*	*
!	!	!	!	!LO:TX:a:t=problem:brak oznaczenia triol	!	!	!	!	!	!
8F\L	.	12aa\L	.	12a\L	pe-	2.ryy	2.ryy	2.ryy	2.ryy	2.ryy
.	.	12ff\	.	12f\	.	.	.	.	.	.
8B-\J	.	.	.	.	.	.	.	.	.	.
.	.	12dd\J	.	12d\J	.	.	.	.	.	.
.	.	8qqff/	.	.	.	.	.	.	.	.
4c\	.	2ee\	.	4e\	-ri-	.	.	.	.	.
4C/	.	.	.	4e\	-bit	.	.	.	.	.
!	!	!	!	!LO:LB:g=original	!	!	!	!	!	!
=59	=59	=59	=59	=59	=59	=59	=59	=59	=59	=59
4C/	.	4g/	.	2c\	de-	2.ryy	2.ryy	2.ryy	2.ryy	2.ryy
4C/	.	4g/	.	.	.	.	.	.	.	.
4C/	.	4g/	.	4c\	-si	.	.	.	.	.
=60	=60	=60	=60	=60	=60	=60	=60	=60	=60	=60
4C/	.	4a/	.	4.c\	de-	2.ryy	2.ryy	2.ryy	2.ryy	2.ryy
4C/	.	4a/	.	.	.	.	.	.	.	.
.	.	.	.	8c\	-ri-	.	.	.	.	.
4C/	.	4a/	.	4c\	-um	.	.	.	.	.
=61	=61	=61	=61	=61	=61	=61	=61	=61	=61	=61
4C/	.	4ee\	.	2c\	pec-	2.ryy	2.ryy	2.ryy	2.ryy	2.ryy
4C/	.	4ee\	.	.	.	.	.	.	.	.
4C/	.	4ee\	.	12c\L	-ca-	.	.	.	.	.
.	.	.	.	12e\	.	.	.	.	.	.
.	.	.	.	12g\J	.	.	.	.	.	.
=62	=62	=62	=62	=62	=62	=62	=62	=62	=62	=62
.	.	.	.	8qqc/	.	.	.	.	.	.
8r	.	2.gg\	.	2B-\	-to-	2.ryy	2.ryy	2.ryy	2.ryy	2.ryy
8C\L	.	.	.	.	.	.	.	.	.	.
8E\	.	.	.	.	.	.	.	.	.	.
8G\	.	.	.	.	.	.	.	.	.	.
!LO:TX:a:t=problem: mixed beam	!	!	!	!	!	!	!	!	!	!
8c\	.	.	.	4B-\	-rum	.	.	.	.	.
8C/J	.	.	.	.	.	.	.	.	.	.
=63	=63	=63	=63	=63	=63	=63	=63	=63	=63	=63
8F\L	.	12aa\L	.	12a\L	pe-	2.r	2.r	2.r	2.r	2.r
.	.	12ff\	.	12f\	.	.	.	.	.	.
8B-\J	.	.	.	.	.	.	.	.	.	.
.	.	12dd\J	.	12d\J	.	.	.	.	.	.
!	!	!LO:TX:a:t=Da Capo	!	!	!	!	!	!	!	!
.	.	8qqff/	.	8qqf/	.	.	.	.	.	.
4c\	.	2ee\	.	2e\	-ri-	.	.	.	.	.
!LO:TX:a:t=Da Capo	!	!	!	!	!	!	!	!	!	!
4C/	.	.	.	.	.	.	.	.	.	.
=64	=64	=64	=64	=64	=64	=64	=64	=64	=64	=64
!LO:TX:a:t=problem:brak tego taktu	!	!LO:TX:a:t=problem:brak tego taktu	!	!	!	!	!	!	!	!
2.ryy	.	2.ryy	.	4f\	-bit	2.ryy	2.ryy	2.ryy	2.ryy	2.ryy
.	.	.	.	4r	.	.	.	.	.	.
!	!	!	!	!LO:TX:a:t=problem:brak pustych taktów 00r 00r 00r 00r 2r (tylko w tym głosie)	!	!	!	!	!	!
.	.	.	.	4r	.	.	.	.	.	.
==	==	==	==	==	==	==	==	==	==	==
*-	*-	*-	*-	*-	*-	*-	*-	*-	*-	*-
!!!system-decoration: g1,g2[(g3)][(g4)]{g5}
!!!RDF**dynam:p = pia:
!!!RDF**dynam:f=for:
!!!ENC: Anna Matuszewska
!!!END: 2020-08-30
